img/linkedin.svg

<svg width="32" height="33" fill="none" xmlns="http://www.w3.org/2000/svg"><path fill-rule="evenodd" clip-rule="evenodd" d="M0 16.5C0 7.663 7.163.5 16 .5s16 7.163 16 16-7.163 16-16 16-16-7.163-16-16zm8.2-2.7v10.7h3.4V13.8H8.2zM8 10.4c0 1.1.8 1.9 1.9 1.9 1.1 0 1.9-.8 1.9-1.9 0-1.1-.8-1.9-1.9-1.9-1 0-1.9.8-1.9 1.9zm12.6 14.1h3.2v-6.6c0-3.3-2-4.4-3.9-4.4-1.7 0-2.9 1.1-3.2 1.8v-1.5h-3.2v10.7h3.4v-5.7c0-1.5 1-2.3 2-2.3s1.7.5 1.7 2.2v5.8z" fill="#C0B7E8"/></svg>

<svg width="32" height="33" viewBox="0 0 32 33" fill="none" xmlns="http://www.w3.org/2000/svg">
<path fill-rule="evenodd" clip-rule="evenodd" d="M0 16.5C0 7.66344 7.16344 0.5 16 0.5C24.8366 0.5 32 7.66344 32 16.5C32 25.3366 24.8366 32.5 16 32.5C7.16344 32.5 0 25.3366 0 16.5ZM8.2 13.8V24.5H11.6V13.8H8.2ZM8 10.4C8 11.5 8.8 12.3 9.9 12.3C11 12.3 11.8 11.5 11.8 10.4C11.8 9.3 11 8.5 9.9 8.5C8.9 8.5 8 9.3 8 10.4ZM20.6 24.5H23.8V17.9C23.8 14.6 21.8 13.5 19.9 13.5C18.2 13.5 17 14.6 16.7 15.3V13.8H13.5V24.5H16.9V18.8C16.9 17.3 17.9 16.5 18.9 16.5C19.9 16.5 20.6 17 20.6 18.7V24.5Z" fill="#C0B7E8"/>
</svg>
